X: 11
T:The Bedbreaker
R:48-bar jig
S:Peeping Tom Tunebook
C:Ian Wilson
M:6/8
K:G
"G"D2G G2D|"C"E2G "D7"FGA|"G"B2G G2D|"C"EFG "D7"F2E|"G"D2G G2D|"C"E2G "D7"FGA|"G"B2z G3|"D7"E2F "G"G3:|
|:"G"B2g f2g|"C"e3-e2f|"G"gfe d2B|"Am"A3-"D7"ABA|"G"G2B BAB|"Am"c2A "D7"d2c|"G"B2G "D7"A2F|1
"G"G3-G3:|2"G3"G3 F3||
"Em"E3 F3|"Em"G3 A3|"Em"Bee e2^d|"Em"e3-e3|"Em"E3 F3|"Em"G3 A3|"Bm"B2A G2F|"Bm"G2F E2^D||
"Em"E3 F3|"Em"G3 A3|"Em"Bee e2^d|"Em"e3 e2f|"C"g2f gfe|"G"d2g "Em"B2d|"Am"cdc "D7"B2A|"G"G3-G3||
